X:1
T:からたちの花
T:からたちの花
T:Karatachi no hana
T:作曲：山田耕筰 Music:Yamada Kōsaku
T:作詞：北原白秋 Lyrics:Kitahara Hakushū
C:山田耕筰
Z:北原白秋
%%score [ 1 2 3 4 ]
L:1/8
Q:1/8=100
M:3/4
K:F
V:1 treble nm="ソプラノ\nSoprano" snm="S."
V:2 treble nm="アルト\nAlto" snm="A."
V:3 treble-8 nm="テノール\nTenor" snm="T."
V:4 bass nm="バス\nBass" snm="B."
V:1
 z C | AA AA Bc |[M:2/4] AF GG | A4 | z A cF | (Bd c)F | f4 | dG AA |[M:3/4] c4 z C | AA AA Bc | %10
w: か|ら た ち の は な|が さ い た|よ。|し ろ い|し ろ い は|な|が さ い た|よ。 か|ら た ち の と げ|
w: Ka|ra ta chi no ha na|ga za i ta|yo.|Shi ro i|shi ro i ha|na|ga sa i ta|yo. Ka|ra ta chi no to ge|
[M:2/4] AF AG | G3 G |[M:3/4] cA Bd cf- |[M:2/4] f3 d | cF AF |[M:3/4] c6 | (F2 A2) (G2 | %17
w: は い た い|よ。 あ|お い あ お い は|_ り|の と げ だ|よ。|ん _ _|
w: wa i ta i|yo. A|o i a o i ha|_ ri|no to ge da|yo|hm _ _|
[M:2/4] F2) (F2 | E2) cc | dd cB |[M:3/4] cc cc BB | AA A2 z C | GG FG dc |[M:2/4] cA cA | %24
w: _ _|* ぢゅ ぢゅ|ぢゅ ぢゅ ぢゅ ぢゅ|ぢゅ ぢゅ ぢゅ ぢゅ ぢゅ ぢゅ|ぢゅ ぢゅ ぢゅ か|ら た ち も あ き|は み の る|
w: _ _|* dyu dyu|dyu dyu dyu dyu|dyu dyu dyu dyu dyu dyu|dyu dyu dyu Ka|ra ta chi no a ki|wa mi no ru|
[M:3/4] GG AB cf | f4- f(d | c2 A)F GF | F4 z C | GG FG dc |[M:2/4] GF GB |[M:3/4] (f2 c2) z (c | %31
w: よ。 ま ろ い ま ろ|い _ き-|ん- の た ま だ|よ。 か|ら た ち の そ ば|で な い た|よ。 _ み-|
w: yo. Ma ro i ma ro|i _ kin-|n- no ta ma da|yo. Ka|ra ta chi no so ba|de na i ta|yo. _ Mi-|
 dd) (de f)d |[M:2/4] ff c>c |[M:3/4] c4 z C | AA AA Bc |[M:2/4] AF GG | A4 | z A cF | Bd cF | f4 | %40
w: ん- な み- ん- な や|さ し かつ た|よ。 か|ら た ち の は な|が さ い た|よ。|し ろ い|し ろ い は|な|
w: n- na mi- n- na ya|sa shi ka ta|yo. Ka|ra ta chi no ha na|ga sa i ta|yo.|Shi ro i|shi ro i ha|na|
 dG [^Gc]>[Gc] | [Af]4 |] %42
w: が さ い た|よ。|
w: ga sa i ta|yo.|
V:2
 (C2 | F4) (G2 |[M:2/4] F)(F E2 | F4) | z F FF | DF FF | (F>G A2) | FF FF |[M:3/4] E4 C2- | %9
w: ん|_ _|* ん _|_|し ろ い|し ろ い は|な _ _|が さ い た|よ。 ん|
w: hm|_ _|* hm _|_|Shi ro i|shi ro i ha|na _ _|ga sa i ta|yo. hm|
 C4 C2- |[M:2/4] C2 (=B,2 | C4) |[M:3/4] (C2 E2 F2) |[M:2/4] F4- | F2 (F2 |[M:3/4] E6) | F4 (E2 | %17
w: _ ん|_ ん|_|ん _ _|_|* ん|_|ん _|
w: _ hm|_ hm|_|hm _ _|_|* hm|_|hm _|
[M:2/4] F2) (=B,2 | C2) FF | FF FF |[M:3/4] FF FF EE | FF F2 z C | EE DE EE |[M:2/4] FF AF | %24
w: _ _|* ぢゅ ぢゅ|ぢゅ ぢゅ ぢゅ ぢゅ|ぢゅ ぢゅ ぢゅ ぢゅ ぢゅ ぢゅ|ぢゅ ぢゅ ぢゅ か|ら た ち も あ き|は み の る|
w: _ _|* dyu dyu|dyu dyu dyu dyu|dyu dyu dyu dyu dyu dyu|dyu dyu dyu Ka|ra ta chi no a ki|wa mi no ru|
[M:3/4] EE EE FF | F4- F(F | A2 F)D EF | F4 z C | EE DE FF |[M:2/4] EF EE |[M:3/4] (F2 E2) z (E | %31
w: よ。 ま ろ い ま ろ|い _ き-|ん- の た ま だ|よ。 か|ら た ち の そ ば|で な い た|よ。 _ み-|
w: yo. Ma ro i ma ro|i _ kin-|n- no ta ma da|yo. Ka|ra ta chi no so ba|de na i ta|yo. _ Mi-|
 EE) (EE G)F |[M:2/4] FF E>E |[M:3/4] F(C FG) (A2 | F4) (G2 |[M:2/4] F)(F E2 | F4) | z F FF | %38
w: ん- な み- ん- な や|さ し かつ た|よ。 ん _ _ _|_ ん|_ ん _|_|し ろ い|
w: n- na mi- n- na ya|sa shi ka ta|yo. hm _ _ _|_ hm|_ hm _|_|Shi ro i|
 DF FF | (F>G A2) | FG E>E | F4 |] %42
w: し ろ い は|な _ _|が さ い た|よ。|
w: shi ro i ha|na _ _|ga sa i ta|yo.|
V:3
 c2- | c4 c2- |[M:2/4] c=B _B2 | [Fc]4 | z c cc | BB cF | (d2 c2) | BB =BB |[M:3/4] c4 (c2 | %9
w: ん|_ _|* ん _|_|し ろ い|し ろ い は|な _|が さ い た|よ。 ん|
w: hm|_ _|* hm _|_|Shi ro i|shi ro i ha|na _|ga sa i ta|yo. hm|
 A4) (G2 |[M:2/4] (F4) | (E2) B2) |[M:3/4] (A2 B2 c2) |[M:2/4] (d2 B2 | c2) (=B2 |[M:3/4] c4) z C | %16
w: _ ん|_|ん _|ん _ _|_ _|* ん|_ か|
w: _ hm|_|hm _|hm _ _|_ _|* hm|_ Ka|
 cc cc Bd |[M:2/4] cF AA | Gc Ac | fd cd |[M:3/4] c2 AF GG | F4 (c2 | c4) (B2 |[M:2/4] c3) (d | %24
w: ら た ち は は た|の か き ね|よ。 い つ も|い つ も と|ほ る み ち だ|よ。 ん|_ _|* ん|
w: ra ta chi wa ha ta|no ka ki ne|yo. I tsu mo|i tsu mo to|o ru mi chi da|yo. hm|_ _|* hm|
[M:3/4] c6) | d2 cB c(d | c4) (B2 | A4) z c | cc cc cc |[M:2/4] cc cc |[M:3/4] (c2 ^G2) z (G | %31
w: _|||* か|ら た ち の そ ば|で な い た|よ。 _ み-|
w: _|||* Ka|ra ta chi no so ba|de na i ta|yo. _ Mi-|
 BB) (Bc d)G |[M:2/4] AA ^G>G |[M:3/4] A (A2 c (f2) | c4) (c2 |[M:2/4] c)(=B _B2 | [Fc]4) | %37
w: ん- な み- ん- な や|さ し かつ た|よ。 ん _ _|_ ん|_ ん _|_|
w: n- na mi- n- na ya|sa shi ka ta|yo. hm _ _|_ hm|_ hm _|_|
 z c cc | BB cF | (d2 c2) | BG c>c | A4 |] %42
w: し ろ い|し ろ い は|な _|が さ い た|よ。|
w: Shi ro i|shi ro i ha|na _|ga sa i ta|yo.|
V:4
 z2 | (F,4 E,2 |[M:2/4] F,)(D, C,2 | F,,4) | z F, A,A, | B,B, A,F, | (B,2 F,2) | G,G, G,,G,, | %8
w: |ん _|_ ん _|_|し ろ い|し ろ い は|な _|が さ い た|
w: |hm _|_ hm _|_|Shi ro i|shi ro i ha|na _|ga sa i ta|
[M:3/4] C,4 z2 | (F,4 E,2 |[M:2/4] (F,)D, G,,2 | C,4) |[M:3/4] (F,2 G,2 A,2) |[M:2/4] (B,2 G,2 | %14
w: よ。|ん _|_ ん _|_|ん _ _|_ _|
w: yo.|hm _|_ hm _|_|hm _ _|_ _|
 A,2) (G,2 |[M:3/4] C,2) (B,4 | A,2 F,2) (B,,2 |[M:2/4] A,,2) (G,,2 | C,)C, F,A, | B,B, A,B, | %20
w: * ん|_ ん|_ _ _||* い つ も|い つ も と|
w: * hm|_ hm|_ _ _||* I tsu mo|i tsu mo to|
[M:3/4] A,2 F,D, C,C, | F,,4 (C2 | B,4) (B,2 |[M:2/4] A,3) ((=B, |[M:3/4] C2) B,2 A,2 | %25
w: ほ る み ち だ|よ。 ん|_ _|* ん|_ _ _|
w: o ru mi chi da|yo. hm|_ _|* hm|_ _ _|
 B,2 A,G, A,)(B, | F,4) (C,2 | F,,4) z C, | B,B, B,B, A,A, |[M:2/4] B,A, B,G, | %30
w: ||* か|ら た ち の そ ば|で な い た|
w: ||* Ka|ra ta chi no so ba|de na i ta|
[M:3/4] (A,2 C,2) z (C, | C,C,) (C,C, =B,,)B,, |[M:2/4] C,C, C,>C, |[M:3/4] F,,6 | F,4 E,2 | %35
w: よ。 _ み-|ん- な み- ん- な や|さ し かつ た|よ。|ん _|
w: yo. _ Mi-|n- na mi- n- na ya|sa shi ka ta|yo.|hm _|
[M:2/4] F,D, C,2 | F,,4 | z F, A,A, | B,B, A,F, | (B,2 F,2) | G,G, C,>C, | [F,,F,]4 |] %42
w: _ _ _||し ろ い|し ろ い は|な _|が さ い た|よ。|
w: _ _ _||Shi ro i|shi ro i ha|na _|ga sa i ta|yo.|

